symbols/it/main-2v-AVV.svg

<?xml version="1.0" encoding="UTF-8" standalone="no"?>
<svg
   width="15"
   height="25.490309"
   viewBox="0 0 15 25.490309"
   version="1.1"
   id="svg3577"
   sodipodi:docname="main-2v-AVV.svg"
   inkscape:version="1.2.2 (b0a8486541, 2022-12-01)"
   xmlns:inkscape="http://www.inkscape.org/namespaces/inkscape"
   xmlns:sodipodi="http://sodipodi.sourceforge.net/DTD/sodipodi-0.dtd"
   xmlns="http://www.w3.org/2000/svg"
   xmlns:svg="http://www.w3.org/2000/svg">
  <defs
     id="defs3581" />
  <sodipodi:namedview
     id="namedview3579"
     pagecolor="#ffffff"
     bordercolor="#666666"
     borderopacity="1.0"
     inkscape:showpageshadow="2"
     inkscape:pageopacity="0.0"
     inkscape:pagecheckerboard="0"
     inkscape:deskcolor="#d1d1d1"
     showgrid="false"
     inkscape:zoom="83.918144"
     inkscape:cx="7.8767233"
     inkscape:cy="18.595502"
     inkscape:window-width="1920"
     inkscape:window-height="1128"
     inkscape:window-x="0"
     inkscape:window-y="0"
     inkscape:window-maximized="1"
     inkscape:current-layer="svg3577" />
  <path
     fill-rule="nonzero"
     fill="#000000"
     fill-opacity="1"
     stroke-width="0.217304"
     stroke-linecap="butt"
     stroke-linejoin="miter"
     stroke="#ffffff"
     stroke-opacity="1"
     stroke-miterlimit="4"
     d="m 11.890622,4.4524006 c 0,2.4023427 -1.9687493,4.3476551 -4.3867176,4.3476551 -2.4296861,0 -4.3945297,-1.9453124 -4.3945297,-4.3476551 0,-2.3984364 1.9648436,-4.3437487 4.3945297,-4.3437487 2.4179683,0 4.3867176,1.9453123 4.3867176,4.3437487 z m 0,0"
     id="path3569" />
  <path
     fill-rule="nonzero"
     fill="#ff0000"
     fill-opacity="1"
     d="m 9.2499999,4.4563081 c 0,0.960938 -0.785156,1.746094 -1.75,1.746094 -0.964844,0 -1.75,-0.785156 -1.75,-1.746094 0,-0.96875 0.785156,-1.75 1.75,-1.75 0.964844,0 1.75,0.78125 1.75,1.75 z m 0,0"
     id="path3571" />
  <path
     fill-rule="nonzero"
     fill="#000000"
     fill-opacity="1"
     stroke-width="0.217304"
     stroke-linecap="butt"
     stroke-linejoin="miter"
     stroke="#ffffff"
     stroke-opacity="1"
     stroke-miterlimit="4"
     d="m 11.890622,13.362554 c 0,2.402343 -1.9687493,4.347655 -4.3867176,4.347655 -2.4296861,0 -4.3945297,-1.945312 -4.3945297,-4.347655 0,-2.398436 1.9648436,-4.3437488 4.3945297,-4.3437488 2.4179683,0 4.3867176,1.9453128 4.3867176,4.3437488 z m 0,0"
     id="path3573" />
  <path
     fill-rule="nonzero"
     fill="#ffdd00"
     fill-opacity="1"
     d="m 9.2499999,13.362558 c 0,0.964844 -0.785156,1.75 -1.75,1.75 -0.964844,0 -1.75,-0.785156 -1.75,-1.75 0,-0.964843 0.785156,-1.746093 1.75,-1.746093 0.964844,0 1.75,0.78125 1.75,1.746093 z m 0,0"
     id="path3575" />
  <path
     fill-rule="nonzero"
     fill="#000000"
     fill-opacity="1"
     d="m 15,21.779372 c 0,2.050781 -1.679688,3.710937 -3.746094,3.710937 C 9.1796878,25.490309 7.5,23.830153 7.5,21.779372 7.5,19.72859 9.1796878,18.068434 11.253906,18.068434 13.320312,18.068434 15,19.72859 15,21.779372 Z m 0,0"
     id="path2" />
  <path
     fill-rule="nonzero"
     fill="#54bfff"
     fill-opacity="1"
     d="m 13.835938,21.783278 c 0,1.421875 -1.160157,2.582031 -2.585938,2.582031 -1.4257812,0 -2.5859382,-1.160156 -2.5859382,-2.582031 0,-1.433594 1.160157,-2.585938 2.5859382,-2.585938 1.425781,0 2.585938,1.152344 2.585938,2.585938 z m 0,0"
     id="path4" />
  <path
     fill-rule="nonzero"
     fill="#000000"
     fill-opacity="1"
     d="m 7.5,21.779372 c 0,2.050781 -1.679688,3.710937 -3.746094,3.710937 C 1.679688,25.490309 0,23.830153 0,21.779372 0,19.72859 1.679688,18.068434 3.753906,18.068434 5.820312,18.068434 7.5,19.72859 7.5,21.779372 Z m 0,0"
     id="path6" />
  <path
     fill-rule="nonzero"
     fill="#54bfff"
     fill-opacity="1"
     d="m 6.335938,21.783278 c 0,1.421875 -1.160157,2.582031 -2.5859381,2.582031 -1.425781,0 -2.5859379,-1.160156 -2.5859379,-2.582031 0,-1.433594 1.1601569,-2.585938 2.5859379,-2.585938 1.4257811,0 2.5859381,1.152344 2.5859381,2.585938 z m 0,0"
     id="path8" />
</svg>

<?xml version="1.0" encoding="UTF-8"?>
<svg xmlns="http://www.w3.org/2000/svg" xmlns:xlink="http://www.w3.org/1999/xlink" width="15" height="25.490309" viewBox="0 0 15 25.490309">
<path fill-rule="nonzero" fill="rgb(0%, 0%, 0%)" fill-opacity="1" stroke-width="0.217304" stroke-linecap="butt" stroke-linejoin="miter" stroke="rgb(100%, 100%, 100%)" stroke-opacity="1" stroke-miterlimit="4" d="M 11.890625 4.453125 C 11.890625 6.855469 9.921875 8.800781 7.503906 8.800781 C 5.074219 8.800781 3.109375 6.855469 3.109375 4.453125 C 3.109375 2.054688 5.074219 0.109375 7.503906 0.109375 C 9.921875 0.109375 11.890625 2.054688 11.890625 4.453125 Z M 11.890625 4.453125 "/>
<path fill-rule="nonzero" fill="rgb(100%, 0%, 0%)" fill-opacity="1" d="M 9.25 4.457031 C 9.25 5.417969 8.464844 6.203125 7.5 6.203125 C 6.535156 6.203125 5.75 5.417969 5.75 4.457031 C 5.75 3.488281 6.535156 2.707031 7.5 2.707031 C 8.464844 2.707031 9.25 3.488281 9.25 4.457031 Z M 9.25 4.457031 "/>
<path fill-rule="nonzero" fill="rgb(0%, 0%, 0%)" fill-opacity="1" stroke-width="0.217304" stroke-linecap="butt" stroke-linejoin="miter" stroke="rgb(100%, 100%, 100%)" stroke-opacity="1" stroke-miterlimit="4" d="M 11.890625 13.363281 C 11.890625 15.765625 9.921875 17.710938 7.503906 17.710938 C 5.074219 17.710938 3.109375 15.765625 3.109375 13.363281 C 3.109375 10.964844 5.074219 9.019531 7.503906 9.019531 C 9.921875 9.019531 11.890625 10.964844 11.890625 13.363281 Z M 11.890625 13.363281 "/>
<path fill-rule="nonzero" fill="rgb(100%, 86.666667%, 0%)" fill-opacity="1" d="M 9.25 13.363281 C 9.25 14.328125 8.464844 15.113281 7.5 15.113281 C 6.535156 15.113281 5.75 14.328125 5.75 13.363281 C 5.75 12.398438 6.535156 11.617188 7.5 11.617188 C 8.464844 11.617188 9.25 12.398438 9.25 13.363281 Z M 9.25 13.363281 "/>
<path fill-rule="nonzero" fill="rgb(0%, 0%, 0%)" fill-opacity="1" d="M 15 21.78125 C 15 23.832031 13.320312 25.492188 11.253906 25.492188 C 9.179688 25.492188 7.5 23.832031 7.5 21.78125 C 7.5 19.730469 9.179688 18.070312 11.253906 18.070312 C 13.320312 18.070312 15 19.730469 15 21.78125 Z M 15 21.78125 "/>
<path fill-rule="nonzero" fill="rgb(32.941176%, 74.901961%, 100%)" fill-opacity="1" d="M 13.835938 21.785156 C 13.835938 23.207031 12.675781 24.367188 11.25 24.367188 C 9.824219 24.367188 8.664062 23.207031 8.664062 21.785156 C 8.664062 20.351562 9.824219 19.199219 11.25 19.199219 C 12.675781 19.199219 13.835938 20.351562 13.835938 21.785156 Z M 13.835938 21.785156 "/>
<path fill-rule="nonzero" fill="rgb(0%, 0%, 0%)" fill-opacity="1" d="M 7.5 21.78125 C 7.5 23.832031 5.820312 25.492188 3.753906 25.492188 C 1.679688 25.492188 0 23.832031 0 21.78125 C 0 19.730469 1.679688 18.070312 3.753906 18.070312 C 5.820312 18.070312 7.5 19.730469 7.5 21.78125 Z M 7.5 21.78125 "/>
<path fill-rule="nonzero" fill="rgb(32.941176%, 74.901961%, 100%)" fill-opacity="1" d="M 6.335938 21.785156 C 6.335938 23.207031 5.175781 24.367188 3.75 24.367188 C 2.324219 24.367188 1.164062 23.207031 1.164062 21.785156 C 1.164062 20.351562 2.324219 19.199219 3.75 19.199219 C 5.175781 19.199219 6.335938 20.351562 6.335938 21.785156 Z M 6.335938 21.785156 "/>
</svg>
